X:1
T:Jesu Kreuz, Leiden und Pein
T:Jesu Kreuz, Leiden und Pein
T:Melchior Vulpius, 1609
T:Public Domain Courtesy of the Cyber Hymnal™
C:Melchior Vulpius, 1609
Z:Public Domain
Z:Courtesy of the Cyber Hymnal™
%%score ( 1 2 ) 3
L:1/8
M:none
K:Eb
V:1 treble 
V:2 treble 
V:3 bass 
V:1
 [EG]4 [DF]2 [CE]4 [CF]2 [EG]2 [EA]2 [DB]4 [Ec]4 [EB]2 [EA]4 [EG]2 [DF]4 E4 | %1
 [EG]4 [FB]2 [EA]4 [EG]2 [DF]2 [CE]2 [=B,D]4 [CE]4 [DF]2 [EG]4 [EG]2 [FA]4 [=EG]4 | %2
 [EG]4 [FA]2 [GB]4 [FA]2 [EG]2 [DF]2 [DG]4 [GB]4 [EA]2 [EG]2 [FB]2 [F=A]4 [DB]4 | %3
 [EB]4 [DG]2 [Cc]4 [EB]2 [EA]2 [EG]2 [DF]4 [EG]4 [EA]2 [_DF]4 [B,E]2 [B,=D]4 [B,E]8 |] %4
V:2
 x36 E4 | x40 | x38 | x44 |] %4
V:3
 [E,B,]4 [B,,B,]2 [C,G,]4 [F,A,]2 [E,B,]2 [C,A,]2 [B,,F,]4 [A,,A,]4 [G,,B,]2 [A,,C]4 [E,B,]2 [B,,B,]4 [E,G,]4 | %1
 [E,B,]4 [D,B,]2 [C,C]4 [E,B,]2 [B,,B,]2 [C,G,]2 [G,,G,]4 [C,G,]4 [B,,B,]2 [E,B,]4 [C,C]2 [F,C]4 [C,C]4 | %2
 [G,B,]4 [F,C]2 [E,E]4 [F,C]2 [G,C]2 [A,C]2 [G,=B,]4 [E,_B,]4 [C,C]2 [E,B,]2 [D,B,]2 [F,C]4 [B,,B,]4 | %3
 [E,G,]4 [B,,G,]2 [A,,A,]4 [G,,B,]2 [A,,C]2 [E,B,]2 [B,,B,]4 [E,B,]4 [A,,C]2 [_D,A,]4 [E,G,]2 [B,,F,]4 [E,G,]8 |] %4

